svgs/sharp-regular/tombstone.svg

<svg xmlns="http://www.w3.org/2000/svg" viewBox="0 0 448 512"><!--! Font Awesome Pro 6.6.0 by @fontawesome - https://fontawesome.com License - https://fontawesome.com/license (Commercial License) Copyright 2024 Fonticons, Inc. --><path d="M368 432l0-240c0-79.5-64.5-144-144-144S80 112.5 80 192l0 240-48 0 0-240C32 86 118 0 224 0S416 86 416 192l0 240-48 0zM0 464l24 0 400 0 24 0 0 48-24 0L24 512 0 512l0-48zM248 152l0 40 48 0 24 0 0 48-24 0-48 0 0 120 0 24-48 0 0-24 0-120-48 0-24 0 0-48 24 0 48 0 0-40 0-24 48 0 0 24z"/></svg>

<svg xmlns="http://www.w3.org/2000/svg" viewBox="0 0 448 512"><!--! Font Awesome Pro 6.4.0 by @fontawesome - https://fontawesome.com License - https://fontawesome.com/license (Commercial License) Copyright 2023 Fonticons, Inc. --><path d="M368 432V192c0-79.5-64.5-144-144-144S80 112.5 80 192V432H32V192C32 86 118 0 224 0S416 86 416 192V432H368zM0 464H24 424h24v48H424 24 0V464zM248 152v40h48 24v48H296 248V360v24H200V360 240H152 128V192h24 48V152 128h48v24z"/></svg>
